X:38
T:Bank ThFife.38, The
B:Thompson, C. & Thompson, S., 'The Compleat Tutor for the Fife', London, c.1765-1780.
S:Digitised by National Library of Scotland at: https://archive.org/details/nlsmusic
Z:vmp Roger Hare, 2019.
M:C|
L:1/8
Q:1/4=100
K:G
"^As printed."
|: D3 E/F/G/ !trill!G4 | D3 E/F/G/ A2 d2 | {c}!trill!B4 G/A/B/c/ | !trill!d4 d2 c !trill!B3 |
GABc d4 | cBcd !trill!e4 | de/f/ g2 {g}!trill!f2 e2 | !trill!d4 d2 ef/g/ |
!trill!d4 d2 ef/g/ | !trill!d4 {c}B2 AB | c2 B2 cA F2 | G4 z4 :|

